X: 944
T: Gülşen-i Hüsnüne Kimler Varıyor
C: Rifat Bey (Sermüezzin, Miralay)
O: Turkey
F: http://compmusic.upf.edu/node/140
N: hicaz--sarki--aksak--gulsen-i_husnune--rifat_bey
N: makam= hicaz
N: form= sarki
N: usul= aksak = 9/8
M: 9/8
L: 1/16
K: C _7/8B ^f ^c 
Q: 1/4=144
%%MIDI tuningsystem comma53
ABcd cBAG cdec d4 z2 | cd efg2 =feed dcd4z2  | 
w:  ARANAĞME  |   | 
cdef g=feg fedf edcB AG | AB cde2 dccB BAA4z2  | 
w:   |   | 
ABcd cBAG cdec d4 z2 | cd efg2 =feed dcd4z2  | 
w:  ARANAĞME  |   | 
cdef g=feg fedf edcB AG | AB cde2 dccB BAA4z2  | 
w:   |   | 
z2d2 cBBA A8 z2 | d3ee2 e2e3de2 f2g2  | \
w:  Gül *  *  şen_ *  i   |  hüs *  nü ne  kim *  ler   | 
f3e d2=f2 e2d2 c2B2 A2 | 
w:  *  *  va rı yor  SAZ  | 
z2 d2cB BAA8z2  | d3e e2e2 e3d e2f2 g2 | \
w:  Gül *  *  şen_ *  i   |  hüs *  nü ne  kim *  ler   | 
f3ed2 =fee4ef edcd  | 
w:  *  *  va rı yor  SAZ  | 
e4 g2a2 a4 a2g2 f2 | e3df2 g2g4ag =fed2  | \
w:  *  Kim_ a ya ğın_  |  *  *  ö pe rek  yal  | 
e3d g2=fe eddc f4 ed | 
w:  *  *  va rı *  yor   | 
d4c2 d2cB BAA4BA  | A4 g2a2 a4 ag=fe d2 | \
w:  *  Kim_ a ya *  *  *  ğın_  |  *  ö pe rek  yal  | 
c3BcB BAA4a=b agfg  | 
w:  *  *  va *  rı yor  SAZ  | 
a2g4a2 a8 z2 | =b3ag2 a2gf fee6  | e2d2 =c'2c'=b baag a6 | 
w:  *  Bağ rı mı   |  şâ *  ne  gi bi  *  *  *  kim   |  *  *  ya rı *  yor   | 
z2 a4 =b2b8a2  | =c'2=ba g2a2 gffe e2f2 a2 | \
w:  Bağ rı mı   |  şâ *  *  ne  gi bi  *  *  *  kim   | 
g3fgf fee4e=f edcd  | 
w:  *  *  ya *  rı *  *  yor   | 
e4 g2a2 a4 a2g2 f2 | e3df2 g2g4ag =fed2  | \
w:  *  Kim_ a ya ğın_  |  *  *  ö pe rek  yal  | 
e3d g2=fe eddc f4 ed | 
w:  *  *  va rı *  yor   | 
d4c2 d2cB BAA4BA  | A4 g2a2 a4 ag=fe d2 | \
w:  *  Kim_ a ya *  *  *  ğın_  |  *  ö pe rek  yal  | 
c3BcB BAA4|
w:  *  *  va *  rı yor  SAZ  | 


